icon-themes/breeze_svg/cmd/32/printlayout.svg

<svg viewBox="0 0 32 32" xmlns="http://www.w3.org/2000/svg"><path d="m6 4v24h9v-1h-8v-22h11v7h7v3h1v-3-1l-7-7h-1zm12 12v1 2h-1-1v1 5 1h1 2v1 1h5 1v-1-1h2 1v-1-5-1h-2v-2-1zm1 1h6v2h-6zm-2 3h10v5h-1v-1h-8v1h-1zm7 1v1h2v-1zm-4 5h4v1h-4z" fill="#4d4d4d"/></svg>

<svg xmlns="http://www.w3.org/2000/svg" viewBox="0 0 32 32">
 <path 
     style="fill:#4d4d4d" 
     d="M 6 4 L 6 28 L 15 28 L 15 27 L 7 27 L 7 5 L 18 5 L 18 12 L 25 12 L 25 15 L 26 15 L 26 12 L 26 11 L 19 4 L 18 4 L 6 4 z M 18 16 L 18 17 L 18 19 L 17 19 L 16 19 L 16 20 L 16 25 L 16 26 L 17 26 L 19 26 L 19 27 L 19 28 L 24 28 L 25 28 L 25 27 L 25 26 L 27 26 L 28 26 L 28 25 L 28 20 L 28 19 L 26 19 L 26 17 L 26 16 L 18 16 z M 19 17 L 25 17 L 25 19 L 19 19 L 19 17 z M 17 20 L 27 20 L 27 25 L 26 25 L 26 24 L 18 24 L 18 25 L 17 25 L 17 20 z M 24 21 L 24 22 L 26 22 L 26 21 L 24 21 z M 20 26 L 24 26 L 24 27 L 20 27 L 20 26 z "
     />
</svg>
